store-marker-outline.svg

<svg fill="currentColor" viewBox="0 0 24 24"><path d="M20 6H4V4h16zm-5.7 6c-.8.96-1.3 2.18-1.3 3.5 0 1.14.43 2.36 1 3.5v1H4v-6H3v-2l1-5h16l.7 3.5c-.66-.32-1.38-.5-2.14-.5l-.2-1H5.64l-.6 3zM12 14H6v4h6zm10 1.5c0 2.6-3.5 6.5-3.5 6.5S15 18.1 15 15.5c0-1.9 1.6-3.5 3.5-3.5s3.5 1.6 3.5 3.5m-2.3.1c0-.6-.6-1.2-1.2-1.2s-1.2.5-1.2 1.2c0 .6.5 1.2 1.2 1.2s1.3-.6 1.2-1.2"/></svg>

<svg  viewBox="0 0 24 24" fill="currentColor"><path  d="M20 6H4V4H20V6M14.3 12C13.5 12.96 13 14.18 13 15.5C13 16.64 13.43 17.86 14 19V20H4V14H3V12L4 7H20L20.7 10.5C20.04 10.18 19.32 10 18.56 10L18.36 9H5.64L5.04 12H14.3M12 14H6V18H12V14M22 15.5C22 18.1 18.5 22 18.5 22S15 18.1 15 15.5C15 13.6 16.6 12 18.5 12S22 13.6 22 15.5M19.7 15.6C19.7 15 19.1 14.4 18.5 14.4S17.3 14.9 17.3 15.6C17.3 16.2 17.8 16.8 18.5 16.8S19.8 16.2 19.7 15.6Z"/></svg>
